X: 1
T: Kesh Jig
I: RJ J-18 G jig Set 15
I: Kincora Jig	J-18	G	jig	Set 15
M: 6/8
R: jig
K: G
D |\
"G"G2G GAB | "D"ABA ABd | "G"edd gdd | edB "D"dBA |\
"G"G2G GAB | "D"ABA ABd | "G"edd gdB | "D"AGF "G"G2 :|
|: A |\
"G"B2B dBd | "C"ege "G"dBG | BAB dBG | "Am"ABA AGA |\
"G"B2B dBd | "C"ege "G"dBd | "C"g2g "D"aga | "G"bgg g2 :|


